X:1
T:Misericordias Domini
T:Leon Leoni
T:Misericordias Domini
C:Leon Leoni
%%score [ 1 2 3 ] 4
L:1/8
Q:1/4=100
M:4/4
K:F
V:1 alto nm="Altus" snm="A"
V:2 tenor nm="Tenor" snm="T"
V:3 bass nm="Bassus" snm="B"
V:4 bass nm="Partitura" snm="Ptra"
V:1
 x8 | z2 z2 z2 x2 |[K:G][K:treble] z8 | z8 | z8 | z8 | z8 | z8 | z2 EF G4 | D4 z2 FG | A4 G4- | %11
w: ||||||||in ae- ter-|num, in ae-|ter- num|
 G2 G2 F4 | E4 z2 DE | =F4 E4- | E2 C2 B,4 | !fermata!^C8 | E8 | E8 | E4 E4- | E2 E2 E4 | =F8- | %21
w: _ can- ta-|bo, in ae-|ter- num|_ can- ta-|bo;|Mi-|se-|ri- cor-|* di- as|Do-|
 F4 =F4 | E4 z2 DE | =F4 E4 | z2 EF G4 | F6 A2 | ^G4 A2 E2 | =FEDE F4 | !fermata!E8 | z8 | z8 | %31
w: * mi-|ni in ae-|ter- num,|in ae- ter-|num can-|ta- bo, can-|ta- * * * *|bo;|||
 z8 | z8 | E4 E4 | E2 E3 E E2 | =F4 F4 | E2 A4 ^G2 | A4 EDEF | G2 G2 F4 | E4 z2 DE | =F4 E2 E^F | %41
w: ||Mi- se-|ri- cor- di- as|Do- mi-|ni in ae-|ter- num _ _ _|_ can- ta-|bo, in ae-|ter- num, in ae-|
 G4 F4 | z2 E2 FG A2- | A2 ^G2 A2 EF | G4 D2 E2 | FG A4 ^G2 | !fermata!A8 | D8 | D3 D G2 F2 | %49
w: ter- num|can- ta- * *|* * bo, in ae-|ter- num can-|ta- * * *|bo;|in|ge- ne- ra- ti-|
 E4 E4 | z2 C2 E3 D | C2 B,2 A,4 | B,8 | z8 | D4 D2 D2 | C4 B,4 | z2 D4 ^C2 | D2 B,2 A,4 | B,8 | %59
w: o- nem|et ge- ne-|ra- ti- o-|nem||an- nun- ti-|a- bo|ve- ri-|ta- tem tu-|am,|
 z8 | z4 D4 | D2 D2 E4 | F2 F4 G2 | E2 E2 ^D4 | E8 | z8 | z4 z2 F2 | GFDEFG A2- | A2 F2 E4 | %69
w: |an-|nun- ti- a-|bo ve- ri-|ta- tem tu-|am||in|o- * * * * * *|* re me-|
 F4 z4 | z2 E2 CDEF | G2 G2 F4 | E4 z4 | z4 B,4 | CDEF G2 G2 | F4 E2 B,2 | CB,CD E2 E2 | C8 | %78
w: o,|in o- * * *|* re me-|o,|in|o- * * * * re|me- o, in|o- * * * * re|me-|
 !fermata!B,8 |] %79
w: o.|
V:2
 x8 | z2 z2 z2 x2 |[K:G][K:treble-8] B8 | B8 | B4 B4- | B2 B2 B4 | c8- | c4 c4 | B8 | z2 Bc d4 | %10
w: ||Mi-|se-|ri- cor-|* di- as|Do-|* mi-|ni|in ae- ter-|
 c4 z2 e2 | dB e4 ^d2 | e4 z2 Bc | d4 c4 | B2 A4 ^G2 | A8 | z8 | z8 | z8 | z8 | z8 | z4 z2 AB | %22
w: num can-|ta- * * *|bo, in ae-|ter- num|can- ta- *|bo;||||||in ae-|
 c4 B4 | z2 AB c4 | G4 z2 Bc | d4 c2 c2 | B4 A4 | z2 A2 d4 | ^c8 | z8 | z8 | A4 A4 | A2 A3 A A2 | %33
w: ter- num,|in ae- ter-|num, in ae-|ter- num can-|ta- bo,|can- ta-|bo;|||Mi- se-|ri- cor- di- as|
 c4 c4 | B4 z2 A2- | A2 A2 d4 | c2 c2 B4 | A4 z4 | z2 e4 ^d2 | e4 BABc | d2 AB c4 | B2 e2 ^d4 | %42
w: Do- mi-|ni in|_ ae- ter-|num can- ta-|bo,|in ae-|ter- num, _ _ _|_ in ae- ter-|num can- ta-|
 e2 ^c2 d3 =c | B4 A2 cd | e4 B2 c2 | d3 c B4 | A8 | A8 | B3 B e2 ^d2 | e4 e2 B2 | e3 d c2 B2 | %51
w: bo, can- ta- *|* bo, in ae-|ter- num can-|ta- * *|bo;|in|ge- ne- ra- ti-|o- nem et|ge- ne- ra- ti-|
 A2 G4 F2 | G4 d4 | d2 d2 c4 | B4 z2 G2- | G2 F2 G2 E2 | DEFG A4 | D8 | z4 G4 | G2 G2 A4 | B4 z4 | %61
w: o- * *|nem an-|nun- ti- a-|bo ve-|* ri- ta- tem|tu- * * * *|am,|an-|nun- ti- a-|bo|
 z2 d4 ^c2 | d2 cB A2 B2 | G2 A2 F4 | E4 z2 G2 | EFGABc d2- | d2 B2 A4 | B4 z4 | z8 | z2 A2 d2 c2 | %70
w: ve- ri-|ta- * * * tem|tu- * *|am in|o- * * * * * *|* re me-|o,||in o- re|
 B4 A3 A | G2 E2 B4 | E2 e2 d3 c | B2 A2 ^G4 | A4 z2 B2 | B4 ^G4 | AGAB c3 B | A2 ^G2 A4 | ^G8 |] %79
w: me- o, in|o- re me-|o, in o- *|* re me-|o, in|o- re|me- * * * * *||o.|
V:3
 x8 | z2 z2 z2 x2 |[K:G] z8 | z8 | z8 | z8 | z8 | z8 | z4 z2 E,F, | G,4 D,4 | z2 A,,B,, C,4 | %11
w: ||||||||in ae-|ter- num,|in ae- ter-|
 G,,2 E,,2 B,,4 | E,,2 E,F, G,4 | D,4 A,,4 | E,8 | A,,8 | z8 | z8 | z8 | z8 | z8 | z8 | %22
w: num can- ta-|bo, in ae- ter-|num can-|ta-|bo,|||||||
 z2 E,F, G,4 | D,4 z2 A,,B,, | C,4 G,,4 | z2 D,2 A,,B,,C,D, | E,4 A,,2 A,2 | D,8 | A,8 | E,4 E,4 | %30
w: in ae- ter-|num, in ae-|ter- num|can- ta- * * *|* bo, can-|ta-|bo;|Mi- se-|
 E,2 E,3 E, E,2 | =F,8- | F,4 =F,4 | E,4 z2 A,2- | A,2 ^G,2 A,4 | D,4 z2 D,2 | A,,4 E,4 | %37
w: ri- cor- di- as|Do-|* mi-|ni in|_ ae- ter-|num can-|ta- bo,|
 z2 A,,B,, C,4 | G,,2 E,,2 B,,4 | E,,2 E,F, G,4 | D,4 z2 A,2 | E,F,G,A, B,4 | E,2 A,2 D,4 | %43
w: in ae- ter-|num can- ta-|bo, in ae- ter-|num can-|ta- * * * *|bo, can- ta-|
 E,4 A,,4 | z2 E,F, G,4 | D,2 A,,2 E,4 | A,,8 | D,8 | G,3 G, E,2 B,2 | E,4 E,2 E,2 | %50
w: * bo,|in ae- ter-|num can- ta-|bo;|in|ge- ne- ra- ti-|o- nem et|
 C,3 C, C,2 C,2 | D,8 | G,,8 | z8 | z8 | z8 | z8 | z8 | G,4 G,2 G,2 | E,4 D,4 | z2 G,4 F,2 | %61
w: ge- ne- ra- ti-|o-|nem||||||an- nun- ti-|a- bo|ve- ri-|
 G,2 B,2 A,4 | D,2 D,4 B,,2 | C,2 A,,2 B,,4 | E,4 E,4 | C,4 G,,4 | D,8 | G,,2 G,2 F,2 D,2 | A,8 | %69
w: ta- tem tu-|am, ve- ri-|ta- tem tu-|am in|o- re|me-|o, in o- re|me-|
 D,2 D,2 B,,2 A,,2 | E,4 A,,4 | z4 B,,4 | C,D,E,F, G,2 D,2 | E,8 | A,,4 z2 E,2 | ^D,4 E,4 | A,,8- | %77
w: o, in o- re|me- o,|in|o- * * * * re|me-|o, in|o- re|me-|
 A,,8 | E,8 |] %79
w: |o.|
V:4
 x8 | z2 z2 z2 x2 |[K:G] E,8 | E,8 | ^D,4 E,4- | E,2 E,2 E,4 | A,,8- | A,,4 A,,4 | E,4 E,3 F, | %9
 G,4 D,4 | A,,3 B,, C,4 | G,,2 E,,2 B,,4 | E,,2 E,F, G,4 | D,4 A,,4 | E,8 | A,,8 | A,8 | A,8 | %18
 ^G,4 A,4- | A,2 A,2 A,4 | D,8- | D,4 D,4 | A,2 E,F, G,4 | D,4 A,,3 B,, | C,4 G,,4 | %25
 D,4 A,,B,,C,D, | E,4 A,,2 A,2 | D,8 | A,8 | E,4 E,4 | E,2 E,3 E, E,2 | =F,8- | F,4 =F,4 | %33
 E,4 A,4- | A,2 ^G,2 A,4 | D,6 D,2 | A,,4 E,4 | A,,3 B,, C,4 | G,,2 E,,2 B,,4 | E,,2 E,F, G,4 | %40
 D,4 A,4 | E,F,G,A, B,4 | E,2 A,2 D,4 | E,4 A,,4 | E,3 F, G,4 | D,2 A,,2 E,4 | A,,8 | D,8 | %48
 G,3 G, E,2 B,2 | E,4 E,2 E,2 | C,3 C, C,2 C,2 | D,8 | G,,4 G,4 | G,2 G,2 A,4 | B,6 G,2- | %55
 G,2 F,2 G,2 E,2 | D,E,F,G, A,4 | D,8 | G,4 G,2 G,2 | E,4 D,4 | G,6 F,2 | G,2 B,2 A,4 | %62
 D,2 D,4 B,,2 | C,2 A,,2 B,,4 | E,4 E,4 | C,4 G,,4 | D,8 | G,,2 G,2 F,2 D,2 | A,8 | %69
 D,3 D, B,,2 A,,2 | E,4 A,,3 A, | G,2 E,2 B,2 B,,2 | C,D,E,F, G,2 D,2 | E,8 | A,,4 E,4 | ^D,4 E,4 | %76
 A,,8- | A,,8 | E,8 |] %79

